storage/app/icons/phosphoricons/regular/baseball-cap.svg

<svg xmlns="http://www.w3.org/2000/svg" fill="currentColor" viewBox="0 0 256 256"><path d="M128 24A104.12 104.12 0 0 0 24 128v56a24 24 0 0 0 24 24 24.1 24.1 0 0 0 14.18-4.64C74.33 194.53 95.6 184 128 184s53.67 10.52 65.81 19.35A24 24 0 0 0 232 184v-56A104.12 104.12 0 0 0 128 24m88 104v8.87a166 166 0 0 0-40.94-18.22 167 167 0 0 0-28.87-76.75A88.14 88.14 0 0 1 216 128m-88-83.73a152.5 152.5 0 0 1 30.4 70.46 170.9 170.9 0 0 0-60.84 0A153.3 153.3 0 0 1 128 44.27m-18.19-2.37a167 167 0 0 0-28.87 76.76A166 166 0 0 0 40 136.88V128a88.14 88.14 0 0 1 69.81-86.1m101.85 149.21a8 8 0 0 1-8.44-.69C189.16 180.2 164.7 168 128 168s-61.16 12.2-75.22 22.42a8 8 0 0 1-8.44.69A7.77 7.77 0 0 1 40 184v-27.93a152 152 0 0 1 176 0V184a7.77 7.77 0 0 1-4.34 7.11"/></svg>

<svg xmlns="http://www.w3.org/2000/svg" viewBox="0 0 256 256" fill="currentColor"><path d="M128,24h0A104.12,104.12,0,0,0,24,128v56a24,24,0,0,0,24,24,24.11,24.11,0,0,0,14.18-4.64C74.33,194.53,95.6,184,128,184s53.67,10.52,65.81,19.35A24,24,0,0,0,232,184V128A104.12,104.12,0,0,0,128,24Zm88,104v8.87a166,166,0,0,0-40.94-18.22A167,167,0,0,0,146.19,41.9,88.14,88.14,0,0,1,216,128ZM128,44.27a152.47,152.47,0,0,1,30.4,70.46,170.85,170.85,0,0,0-60.84,0A153.31,153.31,0,0,1,128,44.27ZM109.81,41.9a167,167,0,0,0-28.87,76.76A166,166,0,0,0,40,136.88V128A88.14,88.14,0,0,1,109.81,41.9ZM211.66,191.11a8,8,0,0,1-8.44-.69C189.16,180.2,164.7,168,128,168S66.84,180.2,52.78,190.42a8,8,0,0,1-8.44.69A7.77,7.77,0,0,1,40,184V156.07a152,152,0,0,1,176,0V184A7.77,7.77,0,0,1,211.66,191.11Z"/></svg>
